src/icons/svg/Recent.svg

<svg width="23" height="24" viewBox="0 0 23 24" fill="none" xmlns="http://www.w3.org/2000/svg">
<path d="M2.88 10.195H9.389L6.759 7.48799C9.38 4.89599 13.623 4.79999 16.244 7.39199C18.865 9.99399 18.865 14.189 16.244 16.79C13.623 19.391 9.38 19.392 6.759 16.79C5.453 15.504 4.801 13.996 4.801 12.096H2.881C2.881 13.997 3.726 16.464 5.415 18.134C8.785 21.475 14.257 21.475 17.626 18.134C20.986 14.803 21.015 9.38799 17.645 6.05699C14.275 2.72599 8.871 2.72599 5.501 6.05699L2.88 3.35899V10.194V10.195Z" fill="#1C2125"/>
<path d="M11.999 12.24V8.16H10.559V12.96L14.668 15.398L15.359 14.236L11.999 12.239V12.24Z" fill="#1C2125"/>
</svg>

<!-- Generated by IcoMoon.io -->
<svg version="1.1" xmlns="http://www.w3.org/2000/svg" width="23" height="24" viewBox="0 0 23 24">
<title>recent</title>
<path fill="#c1c6cc" d="M2.88 10.195h6.509l-2.63-2.707c2.621-2.592 6.864-2.688 9.485-0.096 2.621 2.602 2.621 6.797 0 9.398s-6.864 2.602-9.485 0c-1.306-1.286-1.958-2.794-1.958-4.694h-1.92c0 1.901 0.845 4.368 2.534 6.038 3.37 3.341 8.842 3.341 12.211 0 3.36-3.331 3.389-8.746 0.019-12.077s-8.774-3.331-12.144 0l-2.621-2.698v6.835z"></path>
<path fill="#c1c6cc" d="M11.999 12.24v-4.080h-1.44v4.8l4.109 2.438 0.691-1.162-3.36-1.997z"></path>
</svg>
